X:1
T:Mirfield, CM
T:Arthur Cottman, 1872
T:Mirfield, CM
T:Public Domain
C:Arthur Cottman, 1872
Z:Public Domain
%%score ( 1 2 ) ( 3 4 )
L:1/8
M:4/4
K:Bb
V:1 treble 
V:2 treble 
V:3 bass 
V:4 bass 
V:1
 F2 | [DB]2 [EB]2 [DB]2 (DE) | [DF]2 [EF]2 [DF]2 (B,C) | ([DB][Ec]) [Fd]2 [Gd]2 (AG) | %4
 [^Fd]6 [=FG]2 | [Ee]2 (ed) [Ec]2 G2 | [GA]2 [^Fd]2 [DB]2 (GA) | [DB]2 (DE) [DF]2 [EF]2 | [DF]6 |] %9
V:2
 F2 | x6 B,2 | x6 F2 | x6 c2 | x8 | x2 F2 x G2 x | x6 E2 | x2 B,2 x4 | x6 |] %9
V:3
 F,2 | [B,,F,]2 [B,,G,]2 [B,,F,]2 [G,B,]2 | [F,B,]2 [F,,A,]2 [B,,B,]2 ([B,D][A,C]) | %3
 [G,B,]2 [F,B,]2 [E,B,]2 [E,C]2 | [D,A,]6 [G,=B,]2 | [C,C]2 [C,=B,]2 [C,C]2 [E,C]2 | %6
 [D,C]2 [D,A,]2 [G,B,]2 [E,B,]2 | [B,,B,]2 [G,B,]2 [F,B,]2 [F,,A,]2 | [B,,B,]6 |] %9
V:4
 F,2 | x8 | x8 | x8 | x8 | x8 | x8 | x8 | x6 |] %9

